X:72
T:Donegal
Z: id:dc-reel-65
M:C
L:1/8
K:D Major
A,|D3E FDFA|dFAF BFAF|E3F GFGA|BdAF EGFE|!
D3E FDFA|dFAF ABde|f2e2 dBAG|F2E2 D3:|!
A|defg afdf|afdf a2gf|edef gfed|edef g2fe|!
defg afdf|afdf abag|f2e2 dBAG|F2E2 D3:|!

